src/scalable/apps/podman-desktop.svg

<?xml version="1.0" encoding="UTF-8" standalone="no"?>
<svg
   width="64"
   height="64"
   version="1.1"
   viewBox="0 0 16.933 16.933"
   id="svg22"
   sodipodi:docname="podman-desktop.svg"
   inkscape:version="1.2.2 (b0a8486541, 2022-12-01)"
   xmlns:inkscape="http://www.inkscape.org/namespaces/inkscape"
   xmlns:sodipodi="http://sodipodi.sourceforge.net/DTD/sodipodi-0.dtd"
   xmlns="http://www.w3.org/2000/svg"
   xmlns:svg="http://www.w3.org/2000/svg">
  <sodipodi:namedview
     id="namedview24"
     pagecolor="#ffffff"
     bordercolor="#000000"
     borderopacity="0.25"
     inkscape:showpageshadow="2"
     inkscape:pageopacity="0.0"
     inkscape:pagecheckerboard="0"
     inkscape:deskcolor="#d1d1d1"
     showgrid="false"
     inkscape:zoom="11.609375"
     inkscape:cx="15.978466"
     inkscape:cy="31.956931"
     inkscape:window-width="1920"
     inkscape:window-height="1009"
     inkscape:window-x="0"
     inkscape:window-y="30"
     inkscape:window-maximized="1"
     inkscape:current-layer="svg22" />
  <defs
     id="defs7">
    <linearGradient
       id="a-9"
       x1="42"
       x2="44"
       y1="51"
       y2="55"
       gradientTransform="scale(.26458)"
       gradientUnits="userSpaceOnUse">
      <stop
         offset="0"
         id="stop2" />
      <stop
         stop-opacity="0"
         offset="1"
         id="stop4" />
    </linearGradient>
    <filter
       style="color-interpolation-filters:sRGB;"
       inkscape:label="Drop Shadow"
       id="filter1696"
       x="0"
       y="0"
       width="1.0435692"
       height="1.0586772">
      <feFlood
         flood-opacity="0.219608"
         flood-color="rgb(226,226,225)"
         result="flood"
         id="feFlood1686" />
      <feComposite
         in="flood"
         in2="SourceGraphic"
         operator="in"
         result="composite1"
         id="feComposite1688" />
      <feGaussianBlur
         in="composite1"
         stdDeviation="2.77556e-17"
         result="blur"
         id="feGaussianBlur1690" />
      <feOffset
         dx="0.3"
         dy="0.2"
         result="offset"
         id="feOffset1692" />
      <feComposite
         in="SourceGraphic"
         in2="offset"
         operator="over"
         result="composite2"
         id="feComposite1694" />
    </filter>
  </defs>
  <circle
     cx="8.466"
     cy="8.466"
     r="7.408"
     fill="#220055"
     style="paint-order:stroke fill markers;fill:#220055"
     id="circle9" />
  <path
     d="m 12.304498,7.3612469 c 0,-0.1452536 -0.204704,-0.2621908 -0.458978,-0.2621908 h -0.688927 v 3.4084809 h 0.688927 c 0.254274,0 0.458978,-0.116937 0.458978,-0.262191 z m -0.45806,0.1313576 A 0.22994824,0.13135758 0 0 1 11.616489,7.6236999 0.22994824,0.13135758 0 0 1 11.386541,7.4926045 0.22994824,0.13135758 0 0 1 11.616489,7.3612469 0.22994824,0.13135758 0 0 1 11.846438,7.4926045 Z M 10.928022,7.0990561 H 9.780117 v 3.4084809 h 1.147905 z M 10.469043,7.4926045 A 0.22994824,0.13135758 0 0 1 10.239096,7.6236999 0.22994824,0.13135758 0 0 1 10.009148,7.4926045 0.22994824,0.13135758 0 0 1 10.239096,7.3612469 0.22994824,0.13135758 0 0 1 10.469043,7.4926045 Z M 9.5506279,7.0990561 H 8.4027228 V 10.507537 H 9.5506279 Z M 9.0925674,7.4926045 A 0.22994824,0.13135758 0 0 1 8.8626191,7.6236999 0.22994824,0.13135758 0 0 1 8.6326708,7.4926045 0.22994824,0.13135758 0 0 1 8.8626191,7.3612469 0.22994824,0.13135758 0 0 1 9.0925674,7.4926045 Z M 8.1741512,7.0990561 H 7.0262456 V 10.507537 H 8.1741512 Z M 7.7151725,7.4926045 A 0.22994824,0.13135758 0 0 1 7.4852241,7.6236999 0.22994824,0.13135758 0 0 1 7.255276,7.4926045 0.22994824,0.13135758 0 0 1 7.4852241,7.3612469 0.22994824,0.13135758 0 0 1 7.7151725,7.4926045 Z M 6.7962975,7.0990561 H 5.8778816 c -0.2542744,0 -0.4589785,0.1169372 -0.4589785,0.2621908 v 2.8840991 c 0,0.145254 0.2047041,0.262191 0.4589785,0.262191 H 6.7962975 Z M 6.3386955,7.4926045 A 0.22994824,0.13135758 0 0 1 6.1087474,7.6236999 0.22994824,0.13135758 0 0 1 5.8787993,7.4926045 0.22994824,0.13135758 0 0 1 6.1087474,7.3612469 0.22994824,0.13135758 0 0 1 6.3386955,7.4926045 Z"
     style="display:inline;opacity:1;fill:#cccccc;fill-opacity:0.320267;stroke-width:0.17345;paint-order:markers stroke fill"
     id="path1822" />
  <path
     d="m 12.003242,7.0827807 c 0,-0.1452536 -0.204704,-0.2621908 -0.458978,-0.2621908 h -0.688927 v 3.4084811 h 0.688927 c 0.254274,0 0.458978,-0.116937 0.458978,-0.262191 z m -0.45806,0.1313576 A 0.22994824,0.13135758 0 0 1 11.315233,7.3452337 0.22994824,0.13135758 0 0 1 11.085285,7.2141383 0.22994824,0.13135758 0 0 1 11.315233,7.0827807 0.22994824,0.13135758 0 0 1 11.545182,7.2141383 Z M 10.626766,6.8205899 H 9.4788609 V 10.229071 H 10.626766 Z M 10.167787,7.2141383 A 0.22994824,0.13135758 0 0 1 9.9378393,7.3452337 0.22994824,0.13135758 0 0 1 9.7078913,7.2141383 0.22994824,0.13135758 0 0 1 9.9378393,7.0827807 0.22994824,0.13135758 0 0 1 10.167787,7.2141383 Z M 9.2493717,6.8205899 H 8.1014666 V 10.229071 H 9.2493717 Z M 8.7913112,7.2141383 A 0.22994824,0.13135758 0 0 1 8.5613629,7.3452337 0.22994824,0.13135758 0 0 1 8.3314146,7.2141383 0.22994824,0.13135758 0 0 1 8.5613629,7.0827807 0.22994824,0.13135758 0 0 1 8.7913112,7.2141383 Z M 7.872895,6.8205899 H 6.7249894 V 10.229071 H 7.872895 Z M 7.4139163,7.2141383 A 0.22994824,0.13135758 0 0 1 7.1839679,7.3452337 0.22994824,0.13135758 0 0 1 6.9540198,7.2141383 0.22994824,0.13135758 0 0 1 7.1839679,7.0827807 0.22994824,0.13135758 0 0 1 7.4139163,7.2141383 Z M 6.4950413,6.8205899 H 5.5766254 c -0.2542744,0 -0.4589785,0.1169372 -0.4589785,0.2621908 V 9.96688 c 0,0.145254 0.2047041,0.262191 0.4589785,0.262191 H 6.4950413 Z M 6.0374393,7.2141383 A 0.22994824,0.13135758 0 0 1 5.8074912,7.3452337 0.22994824,0.13135758 0 0 1 5.5775431,7.2141383 0.22994824,0.13135758 0 0 1 5.8074912,7.0827807 0.22994824,0.13135758 0 0 1 6.0374393,7.2141383 Z"
     style="display:inline;opacity:1;fill:#ffffff;fill-opacity:1;stroke-width:0.17345;paint-order:markers stroke fill"
     id="path20" />
  <path
     sodipodi:type="star"
     style="fill:none;stroke:#ffffff;stroke-width:0.247332;stroke-linecap:round;stroke-linejoin:round;stroke-dasharray:none;stroke-opacity:1"
     id="path238"
     inkscape:flatsided="true"
     sodipodi:sides="6"
     sodipodi:cx="5.5594659"
     sodipodi:cy="3.2535298"
     sodipodi:r1="4.0263567"
     sodipodi:r2="3.4869273"
     sodipodi:arg1="0.52732864"
     sodipodi:arg2="1.0509274"
     inkscape:rounded="0"
     inkscape:randomized="0"
     d="M 9.0388599,5.2796999 5.5444482,7.2798585 2.0650541,5.2536884 2.0800718,1.2273597 5.5744836,-0.7727989 9.0538777,1.2533712 Z"
     transform="matrix(1.4124667,0,0,1.2021272,0.66202525,4.6630786)"
     inkscape:label="path238" />
</svg>

<svg width="64" height="64" version="1.1" viewBox="0 0 16.933 16.933" xmlns="http://www.w3.org/2000/svg">
 <circle cx="8.466" cy="8.466" r="7.408" fill="#554069" style="paint-order:stroke fill markers"/>
 <path d="m12.304 7.3612c0-0.14525-0.2047-0.26219-0.45898-0.26219h-0.68893v3.4085h0.68893c0.25427 0 0.45898-0.11694 0.45898-0.26219zm-0.45806 0.13136a0.22995 0.13136 0 0 1-0.22995 0.1311 0.22995 0.13136 0 0 1-0.22995-0.1311 0.22995 0.13136 0 0 1 0.22995-0.13136 0.22995 0.13136 0 0 1 0.22995 0.13136zm-0.91842-0.39355h-1.1479v3.4085h1.1479zm-0.45898 0.39355a0.22995 0.13136 0 0 1-0.22995 0.1311 0.22995 0.13136 0 0 1-0.22995-0.1311 0.22995 0.13136 0 0 1 0.22995-0.13136 0.22995 0.13136 0 0 1 0.22995 0.13136zm-0.91842-0.39355h-1.1479v3.4085h1.1479zm-0.45806 0.39355a0.22995 0.13136 0 0 1-0.22995 0.1311 0.22995 0.13136 0 0 1-0.22995-0.1311 0.22995 0.13136 0 0 1 0.22995-0.13136 0.22995 0.13136 0 0 1 0.22995 0.13136zm-0.91842-0.39355h-1.1479v3.4085h1.1479zm-0.45898 0.39355a0.22995 0.13136 0 0 1-0.22995 0.1311 0.22995 0.13136 0 0 1-0.22995-0.1311 0.22995 0.13136 0 0 1 0.22995-0.13136 0.22995 0.13136 0 0 1 0.22995 0.13136zm-0.91888-0.39355h-0.91842c-0.25427 0-0.45898 0.11694-0.45898 0.26219v2.8841c0 0.14525 0.2047 0.26219 0.45898 0.26219h0.91842zm-0.4576 0.39355a0.22995 0.13136 0 0 1-0.22995 0.1311 0.22995 0.13136 0 0 1-0.22995-0.1311 0.22995 0.13136 0 0 1 0.22995-0.13136 0.22995 0.13136 0 0 1 0.22995 0.13136z" fill="#cccccc" fill-opacity=".32027" stroke-width=".17345" style="paint-order:markers stroke fill"/>
 <path d="m12.003 7.0828c0-0.14525-0.2047-0.26219-0.45898-0.26219h-0.68893v3.4085h0.68893c0.25427 0 0.45898-0.11694 0.45898-0.26219zm-0.45806 0.13136a0.22995 0.13136 0 0 1-0.22995 0.1311 0.22995 0.13136 0 0 1-0.22995-0.1311 0.22995 0.13136 0 0 1 0.22995-0.13136 0.22995 0.13136 0 0 1 0.22995 0.13136zm-0.91842-0.39355h-1.1479v3.4085h1.1479zm-0.45898 0.39355a0.22995 0.13136 0 0 1-0.22995 0.1311 0.22995 0.13136 0 0 1-0.22995-0.1311 0.22995 0.13136 0 0 1 0.22995-0.13136 0.22995 0.13136 0 0 1 0.22995 0.13136zm-0.91842-0.39355h-1.1479v3.4085h1.1479zm-0.45806 0.39355a0.22995 0.13136 0 0 1-0.22995 0.1311 0.22995 0.13136 0 0 1-0.22995-0.1311 0.22995 0.13136 0 0 1 0.22995-0.13136 0.22995 0.13136 0 0 1 0.22995 0.13136zm-0.91842-0.39355h-1.1479v3.4085h1.1479zm-0.45898 0.39355a0.22995 0.13136 0 0 1-0.22995 0.1311 0.22995 0.13136 0 0 1-0.22995-0.1311 0.22995 0.13136 0 0 1 0.22995-0.13136 0.22995 0.13136 0 0 1 0.22995 0.13136zm-0.91888-0.39355h-0.91842c-0.25427 0-0.45898 0.11694-0.45898 0.26219v2.8841c0 0.14525 0.2047 0.26219 0.45898 0.26219h0.91842zm-0.4576 0.39355a0.22995 0.13136 0 0 1-0.22995 0.1311 0.22995 0.13136 0 0 1-0.22995-0.1311 0.22995 0.13136 0 0 1 0.22995-0.13136 0.22995 0.13136 0 0 1 0.22995 0.13136z" fill="#ffffff" stroke-width=".17345" style="paint-order:markers stroke fill"/>
 <path transform="matrix(1.4125 0 0 1.2021 .66203 4.6631)" d="m9.0389 5.2797-3.4944 2.0002-3.4794-2.0262 0.015018-4.0263 3.4944-2.0002 3.4794 2.0262z" fill="none" stroke="#ffffff" stroke-linecap="round" stroke-linejoin="round" stroke-width=".24733"/>
</svg>
